src/pos-icons/moped.svg

<svg height="24" viewBox="0 0 24 24" width="24" xmlns="http://www.w3.org/2000/svg"><path d="m19 15c.55 0 1 .45 1 1s-.45 1-1 1-1-.45-1-1 .45-1 1-1m0-2c-1.66 0-3 1.34-3 3s1.34 3 3 3 3-1.34 3-3-1.34-3-3-3m-9-7h-5v2h5zm7-1h-3v2h3v2.65l-3.5 4.35h-3.5v-5h-4c-2.21 0-4 1.79-4 4v3h2c0 1.66 1.34 3 3 3s3-1.34 3-3h4.5l4.5-5.65v-3.35c0-1.1-.89-2-2-2m-10 12c-.55 0-1-.45-1-1h2c0 .55-.45 1-1 1z"/></svg>

<?xml version="1.0" encoding="UTF-8"?><!DOCTYPE svg PUBLIC "-//W3C//DTD SVG 1.1//EN" "http://www.w3.org/Graphics/SVG/1.1/DTD/svg11.dtd"><svg xmlns="http://www.w3.org/2000/svg" xmlns:xlink="http://www.w3.org/1999/xlink" version="1.1" id="mdi-moped" width="24" height="24" viewBox="0 0 24 24"><path d="M19 15C19.55 15 20 15.45 20 16C20 16.55 19.55 17 19 17S18 16.55 18 16C18 15.45 18.45 15 19 15M19 13C17.34 13 16 14.34 16 16S17.34 19 19 19 22 17.66 22 16 20.66 13 19 13M10 6H5V8H10V6M17 5H14V7H17V9.65L13.5 14H10V9H6C3.79 9 2 10.79 2 13V16H4C4 17.66 5.34 19 7 19S10 17.66 10 16H14.5L19 10.35V7C19 5.9 18.11 5 17 5M7 17C6.45 17 6 16.55 6 16H8C8 16.55 7.55 17 7 17Z" /></svg>
